X: 14143
T: Frog In The Well, The
R: jig
M: 6/8
K: Eminor
|:E3 GEE|BEE GFE|D3 FDD|ADD FED|
E3 GEE|BEE G2A|B3 AGF|1 GED EGD:|2 GED E2B||
|:efe B3|e2f gfe|fdd Add|fag fed|
e^de BAB|e2f gfe|fdB AGF|1 GED E2B:|2 GED E2D||

